svg/user/user_security_line.svg

<?xml version="1.0" encoding="UTF-8"?>
<svg width="24px" height="24px" viewBox="0 0 24 24" version="1.1" xmlns="http://www.w3.org/2000/svg" xmlns:xlink="http://www.w3.org/1999/xlink">
    <title>user_security_line</title>
    <g id="Icon" stroke="none" stroke-width="1" fill="none" fill-rule="evenodd">
        <g id="User" transform="translate(-288.000000, -96.000000)">
            <g id="user_security_line" transform="translate(288.000000, 96.000000)">
                <path d="M24,0 L24,24 L0,24 L0,0 L24,0 Z M12.5935,23.2578 L12.5819,23.2595 L12.5109,23.295 L12.4919,23.2987 L12.4767,23.295 L12.4057,23.2595 C12.3958,23.2564 12.387,23.259 12.3821,23.2649 L12.378,23.2758 L12.3609,23.7031 L12.3659,23.7235 L12.3769,23.7357 L12.4805,23.8097 L12.4953,23.8136 L12.5071,23.8097 L12.6107,23.7357 L12.6233,23.7197 L12.6267,23.7031 L12.6096,23.2758 C12.6076,23.2657 12.601,23.2593 12.5935,23.2578 Z M12.8584,23.1453 L12.8445,23.1473 L12.6598,23.2397 L12.6499,23.2499 L12.6472,23.2611 L12.6651,23.6906 L12.6699,23.7034 L12.6784,23.7105 L12.8793,23.8032 C12.8914,23.8069 12.9022,23.803 12.9078,23.7952 L12.9118,23.7812 L12.8777,23.1665 C12.8753,23.1546 12.8674,23.147 12.8584,23.1453 Z M12.143,23.1473 C12.1332,23.1424 12.1222,23.1453 12.1156,23.1526 L12.1099,23.1665 L12.0758,23.7812 C12.0751,23.7927 12.0828,23.8019 12.0926,23.8046 L12.1083,23.8032 L12.3092,23.7105 L12.3186,23.7024 L12.3225,23.6906 L12.3404,23.2611 L12.3372,23.2485 L12.3278,23.2397 L12.143,23.1473 Z" id="MingCute" fill-rule="nonzero"></path>
                <path d="M11,4 C9.34315,4 8,5.34315 8,7 C8,8.65685 9.34315,10 11,10 C12.6569,10 14,8.65685 14,7 C14,5.34315 12.6569,4 11,4 Z M6,7 C6,4.23858 8.23858,2 11,2 C13.7614,2 16,4.23858 16,7 C16,9.76142 13.7614,12 11,12 C8.23858,12 6,9.76142 6,7 Z M4.41339,17.6013 C4.08967,18.0111 4,18.3206 4,18.5 C4,18.6216 4.03657,18.7512 4.2547,18.9263 C4.50376,19.1262 4.93676,19.3328 5.59914,19.5082 C6.91706,19.8572 8.81071,20 11,20 C11.2218,20 11.4411,19.9985 11.6576,19.9955 C12.2098,19.9879 12.6637,20.4293 12.6714,20.9815 C12.679,21.5338 12.2376,21.9877 11.6854,21.9953 C11.4591,21.9985 11.2305,22 11,22 C8.77101,22 6.66466,21.8593 5.08716,21.4416 C4.30182,21.2336 3.56324,20.9359 3.00266,20.4859 C2.41114,20.0111 2,19.3449 2,18.5 C2,17.713 2.35805,16.9767 2.84397,16.3615 C3.33788,15.7363 4.02143,15.1602 4.82227,14.6715 C6.42467,13.6937 8.60453,13 11,13 C11.4475,13 11.887,13.0242 12.3161,13.0698 C12.8653,13.1282 13.2632,13.6207 13.2048,14.1699 C13.1465,14.7191 12.654,15.117 12.1048,15.0586 C11.7444,15.0203 11.3754,15 11,15 C8.97719,15 7.15705,15.5898 5.86402,16.3788 C5.21714,16.7735 4.72913,17.2015 4.41339,17.6013 Z M18.3162,14.0513 C18.111,13.9829 17.889,13.9829 17.6838,14.0513 L14.6838,15.0513 C14.2754,15.1874 14,15.5696 14,16 L14,17.6714 C14,19.8862 15.6653,21.7467 17.8665,21.9913 C17.9552,22.0012 18.0448,22.0012 18.1335,21.9913 C20.3347,21.7467 22,19.8862 22,17.6714 L22,16 C22,15.5696 21.7246,15.1874 21.3162,15.0513 L18.3162,14.0513 Z M16,17.6714 L16,16.7208 L18,16.0541 L20,16.7208 L20,17.6714 C20,18.8376 19.1448,19.8219 18,19.9922 C16.8552,19.8219 16,18.8376 16,17.6714 Z" id="形状" fill="#09244B"></path>
            </g>
        </g>
    </g>
</svg>

<svg xmlns="http://www.w3.org/2000/svg" width="24" height="24"><g fill="none" fill-rule="evenodd"><path d="M24 0v24H0V0h24ZM12.594 23.258l-.012.002-.071.035-.02.004-.014-.004-.071-.036c-.01-.003-.019 0-.024.006l-.004.01-.017.428.005.02.01.013.104.074.015.004.012-.004.104-.074.012-.016.004-.017-.017-.427c-.002-.01-.009-.017-.016-.018Zm.264-.113-.014.002-.184.093-.01.01-.003.011.018.43.005.012.008.008.201.092c.012.004.023 0 .029-.008l.004-.014-.034-.614c-.003-.012-.01-.02-.02-.022Zm-.715.002a.023.023 0 0 0-.027.006l-.006.014-.034.614c0 .012.007.02.017.024l.015-.002.201-.093.01-.008.003-.011.018-.43-.003-.012-.01-.01-.184-.092Z"/><path fill="#09244B" d="M11 4a3 3 0 1 0 0 6 3 3 0 0 0 0-6ZM6 7a5 5 0 1 1 10 0A5 5 0 0 1 6 7ZM4.413 17.601c-.323.41-.413.72-.413.899 0 .122.037.251.255.426.249.2.682.407 1.344.582C6.917 19.858 8.811 20 11 20c.222 0 .441-.002.658-.005a1 1 0 0 1 .027 2c-.226.003-.455.005-.685.005-2.229 0-4.335-.14-5.913-.558-.785-.208-1.524-.506-2.084-.956C2.41 20.01 2 19.345 2 18.5c0-.787.358-1.523.844-2.139.494-.625 1.177-1.2 1.978-1.69C6.425 13.695 8.605 13 11 13c.447 0 .887.024 1.316.07a1 1 0 0 1-.211 1.989C11.745 15.02 11.375 15 11 15c-2.023 0-3.843.59-5.136 1.379-.647.394-1.135.822-1.45 1.222Zm13.903-3.55a1 1 0 0 0-.632 0l-3 1A1 1 0 0 0 14 16v1.671a4.346 4.346 0 0 0 3.866 4.32c.09.01.179.01.268 0A4.346 4.346 0 0 0 22 17.671V16a1 1 0 0 0-.684-.949l-3-1ZM16 17.671v-.95l2-.667 2 .667v.95c0 1.167-.855 2.15-2 2.321a2.346 2.346 0 0 1-2-2.32Z"/></g></svg>
